gama.ui.shared/icons_svg/dark/viewers/toggle.header.svg

<svg height="25" viewBox="-670.483 -2925.879 25 25" width="25" xmlns="http://www.w3.org/2000/svg"><g fill="none"><path d="m-666.1428-2925.379h16.32c2.1208 0 3.84004 1.719 3.84004 3.84v16.32c0 2.1207-1.71924 3.84-3.84004 3.84h-16.32c-2.1207 0-3.84-1.7193-3.84-3.84v-16.32c0-2.121 1.7193-3.84 3.84-3.84z" fill="#666"/><path d="m-666.1428-2925.379h16.32c2.1208 0 3.84004 1.719 3.84004 3.84v16.32c0 2.1207-1.71924 3.84-3.84004 3.84h-16.32c-2.1207 0-3.84-1.7193-3.84-3.84v-16.32c0-2.121 1.7193-3.84 3.84-3.84z" stroke="#fff" stroke-linecap="round" stroke-linejoin="round" stroke-width=".25"/><path d="m-652.33104-2915.6394h-11.30346c-1.1588 0-2.09825-.9394-2.09825-2.0982 0-1.1589.93945-2.0984 2.09825-2.0984h11.30346c1.15884 0 2.09824.9395 2.09824 2.0984 0 1.1588-.9394 2.0982-2.09824 2.0982z" fill="#fff"/><path d="m-652.33104-2915.6394h-11.30346c-1.1588 0-2.09825-.9394-2.09825-2.0982 0-1.1589.93945-2.0984 2.09825-2.0984h11.30346c1.15884 0 2.09824.9395 2.09824 2.0984 0 1.1588-.9394 2.0982-2.09824 2.0982z"/><path d="m-655.3161-2911.6013v-3.5557h-5.3333v3.5557zm0 .8889h-5.3333v3.5554h5.3333zm-9.7778-.8889h3.5556v-3.5557h-3.5556zm0 .8889v2.2222c0 .7378.5956 1.3332 1.3334 1.3332h2.2222v-3.5554zm14.22224-.8889v-3.5557h-3.55554v3.5557zm0 .8889h-3.55554v3.5554h2.2222c.7378 0 1.33334-.5954 1.33334-1.3332zm-4.44444-5.3333v-3.5556h-5.3333v3.5556zm-9.7778 0h3.5556v-3.5556h-2.2222c-.7378 0-1.3334.5956-1.3334 1.3333zm14.22224 0v-2.2223c0-.7377-.59554-1.3333-1.33334-1.3333h-2.2222v3.5556zm-12.88884-4.4445h11.5555c1.2267 0 2.2222.9956 2.2222 2.2222v9.7778c0 1.2267-.9955 2.2222-2.2222 2.2222h-11.5555c-1.2267 0-2.22225-.9955-2.22225-2.2222v-9.7778c0-1.2266.99555-2.2222 2.22225-2.2222z" fill="#e3e6e1"/></g></svg>

<?xml version="1.0" encoding="UTF-8" standalone="no"?>
<!DOCTYPE svg PUBLIC "-//W3C//DTD SVG 1.1//EN" "http://www.w3.org/Graphics/SVG/1.1/DTD/svg11.dtd">
<svg xmlns="http://www.w3.org/2000/svg" xmlns:xl="http://www.w3.org/1999/xlink" version="1.1" xmlns:dc="http://purl.org/dc/elements/1.1/" viewBox="-670.4828 -2925.879 25 25" width="25" height="25">
  <defs/>
  <g id="SOURCES" stroke-opacity="1" fill="none" stroke="none" fill-opacity="1" stroke-dasharray="none">
    <title>SOURCES</title>
    <g id="SOURCES_Dark">
      <title>Dark</title>
      <g id="Graphic_11011">
        <path d="M -666.1428 -2925.379 L -649.8228 -2925.379 C -647.702 -2925.379 -645.98276 -2923.66 -645.98276 -2921.539 L -645.98276 -2905.219 C -645.98276 -2903.0983 -647.702 -2901.379 -649.8228 -2901.379 L -666.1428 -2901.379 C -668.2635 -2901.379 -669.9828 -2903.0983 -669.9828 -2905.219 L -669.9828 -2921.539 C -669.9828 -2923.66 -668.2635 -2925.379 -666.1428 -2925.379 Z" fill="#666"/>
        <path d="M -666.1428 -2925.379 L -649.8228 -2925.379 C -647.702 -2925.379 -645.98276 -2923.66 -645.98276 -2921.539 L -645.98276 -2905.219 C -645.98276 -2903.0983 -647.702 -2901.379 -649.8228 -2901.379 L -666.1428 -2901.379 C -668.2635 -2901.379 -669.9828 -2903.0983 -669.9828 -2905.219 L -669.9828 -2921.539 C -669.9828 -2923.66 -668.2635 -2925.379 -666.1428 -2925.379 Z" stroke="white" stroke-linecap="round" stroke-linejoin="round" stroke-width=".25"/>
      </g>
      <g id="Graphic_11010">
        <path d="M -652.33104 -2915.6394 L -663.6345 -2915.6394 C -664.7933 -2915.6394 -665.73275 -2916.5788 -665.73275 -2917.7376 L -665.73275 -2917.7376 C -665.73275 -2918.8965 -664.7933 -2919.836 -663.6345 -2919.836 L -652.33104 -2919.836 C -651.1722 -2919.836 -650.2328 -2918.8965 -650.2328 -2917.7376 L -650.2328 -2917.7376 C -650.2328 -2916.5788 -651.1722 -2915.6394 -652.33104 -2915.6394 Z" fill="white"/>
        <path d="M -652.33104 -2915.6394 L -663.6345 -2915.6394 C -664.7933 -2915.6394 -665.73275 -2916.5788 -665.73275 -2917.7376 L -665.73275 -2917.7376 C -665.73275 -2918.8965 -664.7933 -2919.836 -663.6345 -2919.836 L -652.33104 -2919.836 C -651.1722 -2919.836 -650.2328 -2918.8965 -650.2328 -2917.7376 L -650.2328 -2917.7376 C -650.2328 -2916.5788 -651.1722 -2915.6394 -652.33104 -2915.6394 Z" stroke="#65727e" stroke-linecap="round" stroke-linejoin="round" stroke-width="0"/>
      </g>
      <g id="Graphic_11007">
        <path d="M -655.3161 -2911.6013 L -655.3161 -2915.157 L -660.6494 -2915.157 L -660.6494 -2911.6013 Z M -655.3161 -2910.7124 L -660.6494 -2910.7124 L -660.6494 -2907.157 L -655.3161 -2907.157 Z M -665.0939 -2911.6013 L -661.5383 -2911.6013 L -661.5383 -2915.157 L -665.0939 -2915.157 Z M -665.0939 -2910.7124 L -665.0939 -2908.4902 C -665.0939 -2907.7524 -664.4983 -2907.157 -663.7605 -2907.157 L -661.5383 -2907.157 L -661.5383 -2910.7124 Z M -650.87166 -2911.6013 L -650.87166 -2915.157 L -654.4272 -2915.157 L -654.4272 -2911.6013 Z M -650.87166 -2910.7124 L -654.4272 -2910.7124 L -654.4272 -2907.157 L -652.205 -2907.157 C -651.4672 -2907.157 -650.87166 -2907.7524 -650.87166 -2908.4902 Z M -655.3161 -2916.0457 L -655.3161 -2919.6013 L -660.6494 -2919.6013 L -660.6494 -2916.0457 Z M -665.0939 -2916.0457 L -661.5383 -2916.0457 L -661.5383 -2919.6013 L -663.7605 -2919.6013 C -664.4983 -2919.6013 -665.0939 -2919.0057 -665.0939 -2918.268 Z M -650.87166 -2916.0457 L -650.87166 -2918.268 C -650.87166 -2919.0057 -651.4672 -2919.6013 -652.205 -2919.6013 L -654.4272 -2919.6013 L -654.4272 -2916.0457 Z M -663.7605 -2920.4902 L -652.205 -2920.4902 C -650.9783 -2920.4902 -649.9828 -2919.4946 -649.9828 -2918.268 L -649.9828 -2908.4902 C -649.9828 -2907.2635 -650.9783 -2906.268 -652.205 -2906.268 L -663.7605 -2906.268 C -664.9872 -2906.268 -665.98275 -2907.2635 -665.98275 -2908.4902 L -665.98275 -2918.268 C -665.98275 -2919.4946 -664.9872 -2920.4902 -663.7605 -2920.4902 Z" fill="#e3e6e1"/>
      </g>
    </g>
  </g>
</svg>
